X:1
T:My Father Leads Me
T:My Father Leads Me
T:Charles Hutchinson Gabriel
T:Lillian Grafton Pence, 1911
T:Public Domain Courtesy of the Cyber Hymnal™
C:Charles Hutchinson Gabriel
Z:Public Domain
Z:Courtesy of the Cyber Hymnal™
%%score ( 1 2 ) ( 3 4 )
L:1/8
Q:1/4=100
M:6/8
K:Eb
V:1 treble 
V:2 treble 
V:3 bass 
V:4 bass 
V:1
 E | [EG]2 [EG] [EF]2 E | [EB]2 [Ec] [EB]2 [EG] | [EG]2 [DF] [DF]2 [FA] | [FA]2 [EG] [EG]2 E | %5
w: 1.~My|Fa- ther leads me,|and con- tent, I|trust in Him to|choose my way; I|
w: 2.~My|Fa- ther leads, and|oft- en- times, Thro’|thorn- y paths, my|wear- y feet; But|
w: 3.~And|when I reach the|riv- er wide Whose|storm- y wa- ters|dark- ly flow, He’ll|
 [EG]2 [EG] [EF]2 E | [EB]2 [Ec] [EB]2 [EG] | [EF]2 [EG] [E=A]2 [EF] | %8
w: know that walk- ing|by His side My|feet may ne- ver|
w: by His side I|need not fear Tho’|blind- ing storms a-|
w: hold my hand and|guide me safe In-|to the ha- ven|
 [DB]2 [Ec] !fermata![Fd]2 [Ad] | [Ge]2 [Ee] [Ed]2 [Ec] | [EB]2 [EB] [EG]2 [EB] | %11
w: go a- stray; I|know my Fa- ther|lead- eth me, He|
w: round me beat; For|as my days my|strength shall be— I|
w: I would go; And|there my song shall|ev- er be, I|
 [DB]2 [DF] [DF]2 [Dc] | [EB]2 [EG] [EG]2 ||"^Refrain" [AB] | e3- (ed)[Ac] | B3 [EG]2 [EB] | %16
w: lead- eth me, He|lead- eth me.||||
w: know my Fa- ther|lead- eth me.|He|lead- * * eth|me, I know|
w: know my Fa- ther|lead- eth me.||||
 [Ec]2 [Ee] [EB]2 E | [EG]2 [DF] [B,E]2 |] %18
w: ||
w: * my Fa- ther|lead- eth me.|
w: ||
V:2
 E | x5 E | x6 | x6 | x5 E | x5 E | x6 | x6 | x6 | x6 | x6 | x6 | x5 || x | (GAB A2) x | G2 G x3 | %16
 x5 E | x5 |] %18
V:3
 [E,G,] | [E,B,]2 [E,B,] [E,A,]2 [E,G,] | [E,G,]2 [E,A,] [E,G,]2 [E,B,] | %3
w: ~|~ ~ ~ ~|~ ~ ~ ~|
 [B,,B,]2 [B,,B,] [B,,B,]2 [B,,B,] | [E,B,]2 [E,B,] [E,B,]2 [E,G,] | %5
w: ~ ~ ~ ~|~ ~ ~ ~|
 [E,B,]2 [E,B,] [E,A,]2 [E,G,] | [E,G,]2 [E,A,] [E,G,]2 [E,B,] | [F,=A,]2 [F,B,] [F,C]2 [F,A,] | %8
w: ~ ~ ~ ~|~ ~ ~ ~|~ ~ ~ ~|
 [B,,B,]2 [B,,B,] !fermata![B,,B,]2 B, | [E,B,]2 [G,B,] [A,B,]2 A, | %10
w: ~ ~ ~ ~|~ ~ ~ ~|
 [E,G,]2 [E,G,] [E,B,]2 [E,G,] | [B,,F,]2 [B,,B,] [B,,B,]2 [B,,B,] | [E,G,]2 [E,B,] [E,B,]2 || B, | %14
w: ~ ~ ~ ~|~ ~ ~ ~|~ ~ ~|He|
 B,2 [G,E] [A,C]2 [A,E] | [E,E]2 [E,E] [E,B,]2 [E,G,] | A,2 [A,C] [G,E]2 [E,G,] | %17
w: lead- eth me, He|lead- eth me *||
 [B,,B,]2 [B,,A,] [E,G,]2 |] %18
w: |
V:4
 x | x6 | x6 | x6 | x6 | x6 | x6 | x6 | x5 B, | x5 A, | x6 | x6 | x5 || B, | (E,F,) x4 | x6 | %16
 A,2 x4 | x5 |] %18

